X:1
T: Keep the Country Bonnie Lassie
C:
R:Strathspey
Q: 128
K:A
M:4/4
L:1/16
|:f2|A2AA c3B A3B cf3|A2AA c3A e3A c3A|d3f c3e B3c df3|e3A a3f e4 A2f2|
A2AA c3B A3B cf3|A2AA c3A e3A c3A|d3f c3e B3c df3|e3A a3f e4 A2g2|
agfe c3f B3c dg3|agfe c3e agfe c3e|d3f c3a B3c df3|e2fg a3f e4 A2b2|
agfe c3f B3c dg3|agfe c3e agfe c3e|d3f c3a B3c df3|e2fg a3f e4 A2:|
